svg/icon/sls.svg

<svg xmlns="http://www.w3.org/2000/svg" xmlns:xlink="http://www.w3.org/1999/xlink" width="32" height="32" viewBox="0 0 32 32"><defs><linearGradient id="sls-c" x1="50%" x2="50%" y1="0%" y2="100%"><stop offset="0%" stop-color="#FFF" stop-opacity=".5"/><stop offset="100%" stop-opacity=".5"/></linearGradient><circle id="sls-b" cx="16" cy="15" r="15"/><filter id="sls-a" width="111.7%" height="111.7%" x="-5.8%" y="-4.2%" filterUnits="objectBoundingBox"><feOffset dy=".5" in="SourceAlpha" result="shadowOffsetOuter1"/><feGaussianBlur in="shadowOffsetOuter1" result="shadowBlurOuter1" stdDeviation=".5"/><feComposite in="shadowBlurOuter1" in2="SourceAlpha" operator="out" result="shadowBlurOuter1"/><feColorMatrix in="shadowBlurOuter1" values="0 0 0 0 0 0 0 0 0 0 0 0 0 0 0 0 0 0 0.199473505 0"/></filter><path id="sls-e" d="M7.62272348,19.7112548 C7.39145297,19.221033 7.22605173,18.6934582 7.11702481,18.1643967 C7.04339696,17.8071119 7,17.4563654 7,17.3094629 L7.89440994,17.3094629 C7.89440994,17.3292395 7.90133972,17.4133888 7.91376042,17.5137765 C7.93175825,17.65924 7.958584,17.8236803 7.99440264,17.997493 C8.09094452,18.4659699 8.2369605,18.9317122 8.43735634,19.3564892 C8.97332529,20.4925771 9.78781823,21.140665 10.9689441,21.140665 C11.8925203,21.140665 12.6083054,20.7714386 13.1131886,20.1194612 C13.5405788,19.5675538 13.7826087,18.8374506 13.7826087,18.2225064 C13.7826087,17.4361108 13.4852304,16.8560871 12.890245,16.364944 C12.4057071,15.9649722 11.848847,15.6840786 10.6985516,15.2070415 C10.6533857,15.1883109 10.4936447,15.122175 10.496185,15.1232273 C9.30048947,14.6279248 8.74840878,14.3558632 8.21105715,13.9317721 C7.46913956,13.3462325 7.07453416,12.6188925 7.07453416,11.6879795 C7.07453416,10.5731886 7.4762287,9.62846558 8.1939131,8.96005405 C8.85936962,8.34028467 9.75828613,8 10.689441,8 C11.9686614,8 12.9459616,8.53265232 13.5962733,9.46706012 L13.5962733,8.19693095 L16.484472,8.19693095 L16.484472,20.943734 L17.3416149,20.943734 L17.3416149,17.3672679 C17.3406399,17.3322923 17.3409936,17.3024906 17.3427518,17.2788454 L18.2360248,17.3094629 L18.2360248,17.3543139 C18.2393639,17.4134901 18.2436597,17.4630337 18.2498575,17.5191821 C18.2654837,17.6607448 18.2908818,17.8253824 18.3257497,17.9999805 C18.4185805,18.4648233 18.5632548,18.9317677 18.762998,19.3571928 C19.2957771,20.4919379 20.1105762,21.140665 21.2919255,21.140665 C22.2155017,21.140665 22.9312867,20.7714386 23.43617,20.1194612 C23.8635602,19.5675538 24.1055901,18.8374506 24.1055901,18.2225064 C24.1055901,17.4361108 23.8082118,16.8560871 23.2132263,16.364944 C22.7286884,15.9649722 22.1718284,15.6840786 21.0215329,15.2070415 C20.9763671,15.1883109 20.8166261,15.122175 20.8191664,15.1232273 C19.6234708,14.6279248 19.0713901,14.3558632 18.5340385,13.9317721 C17.7921209,13.3462325 17.3975155,12.6188925 17.3975155,11.6879795 C17.3975155,10.5731886 17.7992101,9.62846558 18.5168945,8.96005405 C19.182351,8.34028467 20.0812675,8 21.0124224,8 C22.2916427,8 23.2689429,8.53265232 23.9192547,9.46706012 L23.9192547,8.25063939 L24.8136646,8.25063939 L24.8136646,12.6726343 L23.9192547,12.6726343 C23.9192547,11.748889 23.7069326,10.8138218 23.2902712,10.1216617 C22.7984246,9.30460387 22.0583499,8.85933504 21.0124224,8.85933504 C20.3106583,8.85933504 19.635753,9.11482032 19.1394223,9.5770753 C18.598542,10.0808213 18.2919255,10.8019356 18.2919255,11.6879795 C18.2919255,12.3485046 18.5576779,12.8383417 19.1017596,13.2677443 C19.5513903,13.622604 20.0562588,13.8713997 21.1732771,14.3341111 C21.1705145,14.3329667 21.330523,14.3992134 21.3759826,14.4180659 C22.6086766,14.9292743 23.2201459,15.2377141 23.7960904,15.7131394 C24.5825315,16.3623235 25,17.1765782 25,18.2225064 C25,19.0189192 24.6981843,19.9293715 24.1537526,20.6324195 C23.4851667,21.4957933 22.5077076,22 21.2919255,22 C20.4486826,22 19.7258372,21.7439993 19.1313095,21.270648 C18.7814054,20.9920612 18.4846437,20.6458392 18.2360248,20.2446184 L18.2360248,21.8030691 L15.5900621,21.8030691 L15.5900621,9.05626598 L14.4906832,9.05626598 L14.4906832,12.6726343 L13.5962733,12.6726343 C13.5962733,11.748889 13.3839513,10.8138218 12.9672898,10.1216617 C12.4754433,9.30460387 11.7353685,8.85933504 10.689441,8.85933504 C9.98767698,8.85933504 9.31277163,9.11482032 8.81644089,9.5770753 C8.27556059,10.0808213 7.9689441,10.8019356 7.9689441,11.6879795 C7.9689441,12.3485046 8.23469651,12.8383417 8.77877819,13.2677443 C9.22840898,13.622604 9.7332774,13.8713997 10.8502958,14.3341111 C10.8475331,14.3329667 11.0075416,14.3992134 11.0530012,14.4180659 C12.2856952,14.9292743 12.8971645,15.2377141 13.4731091,15.7131394 C14.2595501,16.3623235 14.6770186,17.1765782 14.6770186,18.2225064 C14.6770186,19.0189192 14.3752029,19.9293715 13.8307712,20.6324195 C13.1621853,21.4957933 12.1847262,22 10.9689441,22 C10.1257703,22 9.40299731,21.7440549 8.80814019,21.2707301 C8.44995467,20.9857238 8.14726018,20.6299512 7.89440994,20.2166284 L7.89440994,21.7493606 L7,21.7493606 L7,17.3094629 L7.89440994,17.3094629 L7.89440994,20.2166284 C7.79648033,20.0565473 7.70602753,19.8878335 7.62272348,19.7112548 Z"/><filter id="sls-d" width="119.4%" height="125%" x="-9.7%" y="-8.9%" filterUnits="objectBoundingBox"><feOffset dy=".5" in="SourceAlpha" result="shadowOffsetOuter1"/><feGaussianBlur in="shadowOffsetOuter1" result="shadowBlurOuter1" stdDeviation=".5"/><feColorMatrix in="shadowBlurOuter1" values="0 0 0 0 0 0 0 0 0 0 0 0 0 0 0 0 0 0 0.204257246 0"/></filter></defs><g fill="none" fill-rule="evenodd"><use fill="#000" filter="url(#sls-a)" xlink:href="#sls-b"/><use fill="#8E9495" xlink:href="#sls-b"/><use fill="url(#sls-c)" style="mix-blend-mode:soft-light" xlink:href="#sls-b"/><circle cx="16" cy="15" r="14.5" stroke="#000" stroke-opacity=".097"/><g fill-rule="nonzero"><use fill="#000" filter="url(#sls-d)" xlink:href="#sls-e"/><use fill="#FFF" fill-rule="evenodd" xlink:href="#sls-e"/></g></g></svg>

<svg xmlns="http://www.w3.org/2000/svg" xmlns:xlink="http://www.w3.org/1999/xlink" width="32" height="32" viewBox="0 0 32 32"><defs><linearGradient id="c" x1="50%" x2="50%" y1="0%" y2="100%"><stop offset="0%" stop-color="#FFF" stop-opacity=".5"/><stop offset="100%" stop-opacity=".5"/></linearGradient><circle id="b" cx="16" cy="15" r="15"/><filter id="a" width="111.7%" height="111.7%" x="-5.8%" y="-4.2%" filterUnits="objectBoundingBox"><feOffset dy=".5" in="SourceAlpha" result="shadowOffsetOuter1"/><feGaussianBlur in="shadowOffsetOuter1" result="shadowBlurOuter1" stdDeviation=".5"/><feComposite in="shadowBlurOuter1" in2="SourceAlpha" operator="out" result="shadowBlurOuter1"/><feColorMatrix in="shadowBlurOuter1" values="0 0 0 0 0 0 0 0 0 0 0 0 0 0 0 0 0 0 0.199473505 0"/></filter><path id="e" d="M7.623 19.711a6.907 6.907 0 0 1-.506-1.547A5.396 5.396 0 0 1 7 17.31h.894a6.195 6.195 0 0 0 .1.688c.097.469.243.935.443 1.36.536 1.136 1.35 1.784 2.532 1.784.924 0 1.64-.37 2.144-1.022.428-.551.67-1.282.67-1.896 0-.787-.298-1.367-.893-1.858-.484-.4-1.041-.68-2.191-1.158l-.203-.084c-1.196-.495-1.748-.767-2.285-1.191-.742-.586-1.136-1.313-1.136-2.244 0-1.115.401-2.06 1.119-2.728A3.663 3.663 0 0 1 10.689 8c1.28 0 2.257.533 2.907 1.467v-1.27h2.888v12.747h.858v-3.577a.898.898 0 0 1 0-.088l.894.03v.045a5.685 5.685 0 0 0 .09.646c.093.465.237.932.437 1.357.533 1.135 1.348 1.784 2.529 1.784.924 0 1.64-.37 2.144-1.022.428-.551.67-1.282.67-1.896 0-.787-.298-1.367-.893-1.858-.484-.4-1.041-.68-2.191-1.158l-.203-.084c-1.196-.495-1.748-.767-2.285-1.191-.742-.586-1.136-1.313-1.136-2.244 0-1.115.401-2.06 1.119-2.728A3.663 3.663 0 0 1 21.012 8c1.28 0 2.257.533 2.907 1.467V8.251h.895v4.422h-.895c0-.924-.212-1.86-.629-2.551-.492-.817-1.232-1.263-2.278-1.263a2.75 2.75 0 0 0-1.873.718c-.54.504-.847 1.225-.847 2.111 0 .66.266 1.15.81 1.58.45.355.954.603 2.071 1.066l.203.084c1.233.511 1.844.82 2.42 1.295.787.65 1.204 1.464 1.204 2.51 0 .796-.302 1.706-.846 2.41-.669.863-1.646 1.367-2.862 1.367-.843 0-1.566-.256-2.16-.73a3.967 3.967 0 0 1-.896-1.025v1.558H15.59V9.056h-1.1v3.617h-.894c0-.924-.212-1.86-.629-2.551-.492-.817-1.232-1.263-2.278-1.263a2.75 2.75 0 0 0-1.873.718c-.54.504-.847 1.225-.847 2.111 0 .66.266 1.15.81 1.58.45.355.954.603 2.071 1.066l.203.084c1.233.511 1.844.82 2.42 1.295.787.65 1.204 1.464 1.204 2.51 0 .796-.302 1.706-.846 2.41-.669.863-1.646 1.367-2.862 1.367-.843 0-1.566-.256-2.16-.73a3.994 3.994 0 0 1-.915-1.053v1.532H7v-4.44h.894v2.908a5.306 5.306 0 0 1-.271-.506z"/><filter id="d" width="119.4%" height="125%" x="-9.7%" y="-8.9%" filterUnits="objectBoundingBox"><feOffset dy=".5" in="SourceAlpha" result="shadowOffsetOuter1"/><feGaussianBlur in="shadowOffsetOuter1" result="shadowBlurOuter1" stdDeviation=".5"/><feColorMatrix in="shadowBlurOuter1" values="0 0 0 0 0 0 0 0 0 0 0 0 0 0 0 0 0 0 0.204257246 0"/></filter></defs><g fill="none" fill-rule="evenodd"><use fill="#000" filter="url(#a)" xlink:href="#b"/><use fill="#8E9495" xlink:href="#b"/><use fill="url(#c)" style="mix-blend-mode:soft-light" xlink:href="#b"/><circle cx="16" cy="15" r="14.5" stroke="#000" stroke-opacity=".097"/><g fill-rule="nonzero"><use fill="#000" filter="url(#d)" xlink:href="#e"/><use fill="#FFF" fill-rule="evenodd" xlink:href="#e"/></g></g></svg>
